packages/assets/static/images/icons/log.svg

<svg width="24" height="24" viewBox="0 0 24 24" xmlns="http://www.w3.org/2000/svg">
<g clip-path="url(#clip0_2087_4471)">
<path d="M20.25 13.8755C20.25 14.1722 20.162 14.4622 19.9972 14.7088C19.8324 14.9555 19.5981 15.1478 19.324 15.2613C19.0499 15.3748 18.7483 15.4045 18.4574 15.3467C18.1664 15.2888 17.8991 15.1459 17.6893 14.9362C17.4796 14.7264 17.3367 14.4591 17.2788 14.1681C17.2209 13.8772 17.2506 13.5756 17.3642 13.3015C17.4777 13.0274 17.67 12.7931 17.9166 12.6283C18.1633 12.4635 18.4533 12.3755 18.75 12.3755C19.1478 12.3755 19.5294 12.5335 19.8107 12.8148C20.092 13.0961 20.25 13.4777 20.25 13.8755ZM23.625 13.8755C23.625 17.8711 21.4837 21.0005 18.75 21.0005H5.25C2.51625 21.0005 0.375 17.8711 0.375 13.8755C0.375 9.87987 2.51625 6.75049 5.25 6.75049H8.53125L11.9513 3.32956C12.0561 3.22478 12.1807 3.14177 12.3178 3.0853C12.4549 3.02883 12.6017 3.00001 12.75 3.00049H15.75C16.0484 3.00049 16.3345 3.11902 16.5455 3.33C16.7565 3.54098 16.875 3.82713 16.875 4.12549C16.875 4.42386 16.7565 4.71001 16.5455 4.92099C16.3345 5.13197 16.0484 5.25049 15.75 5.25049H13.2188L11.7188 6.75049H18.75C21.4837 6.75049 23.625 9.87987 23.625 13.8755ZM5.25 18.7505H15.1659C14.8003 18.1659 14.5138 17.5354 14.3137 16.8755H7.5C7.20163 16.8755 6.91548 16.757 6.7045 16.546C6.49353 16.335 6.375 16.0489 6.375 15.7505C6.375 15.4521 6.49353 15.166 6.7045 14.955C6.91548 14.744 7.20163 14.6255 7.5 14.6255H13.9003C13.8834 14.3789 13.875 14.1296 13.875 13.8755C13.875 11.9724 14.3616 10.2661 15.1659 9.00049H5.25C4.51406 9.00049 3.72844 9.70456 3.21 10.8755H9.75C10.0484 10.8755 10.3345 10.994 10.5455 11.205C10.7565 11.416 10.875 11.7021 10.875 12.0005C10.875 12.2989 10.7565 12.585 10.5455 12.796C10.3345 13.007 10.0484 13.1255 9.75 13.1255H2.65781C2.63625 13.3683 2.625 13.6177 2.625 13.8755C2.625 16.748 4.00875 18.7505 5.25 18.7505ZM21.375 13.8755C21.375 11.003 19.9912 9.00049 18.75 9.00049C17.5088 9.00049 16.125 11.003 16.125 13.8755C16.125 16.748 17.5088 18.7505 18.75 18.7505C19.9912 18.7505 21.375 16.748 21.375 13.8755Z"/>
</g>
<defs>
<clipPath id="clip0_2087_4471">
<rect width="24" height="24"/>
</clipPath>
</defs>
</svg>

<svg viewBox="0 0 24 24" xmlns="http://www.w3.org/2000/svg" aria-hidden="true" fill="currentColor" height="24px" width="24px"><g clip-path="url(#a)"><path d="M20.25 13.876a1.5 1.5 0 1 1-3 0 1.5 1.5 0 0 1 3 0m3.375 0c0 3.995-2.141 7.124-4.875 7.124H5.25C2.516 21 .375 17.871.375 13.877.375 9.88 2.516 6.75 5.25 6.75h3.281l3.42-3.42A1.12 1.12 0 0 1 12.75 3h3a1.125 1.125 0 1 1 0 2.25h-2.531l-1.5 1.5h7.031c2.734 0 4.875 3.13 4.875 7.126M5.25 18.75h9.916a7.8 7.8 0 0 1-.852-1.875H7.5a1.125 1.125 0 1 1 0-2.25h6.4a11 11 0 0 1-.025-.75c0-1.903.487-3.609 1.29-4.875H5.25c-.736 0-1.522.705-2.04 1.876h6.54a1.125 1.125 0 1 1 0 2.25H2.658a9 9 0 0 0-.033.75c0 2.872 1.384 4.874 2.625 4.874m16.125-4.874C21.375 11.003 19.991 9 18.75 9s-2.625 2.003-2.625 4.876c0 2.872 1.384 4.874 2.625 4.874s2.625-2.002 2.625-4.874"/></g><defs><clipPath id="a"><path d="M0 0h24v24H0z"/></clipPath></defs></svg>
